src/icons/simulation.svg

<svg fill="none" height="31" viewBox="0 0 31 31" width="31" xmlns="http://www.w3.org/2000/svg"><path d="m6 1h-3c-.53043 0-1.03914.21071-1.41421.58579-.37508.37507-.58579.88378-.58579 1.41421v3m29 0v-3c0-.53043-.2107-1.03914-.5858-1.41421-.3751-.37508-.8838-.58579-1.4142-.58579h-3m0 29h3c.5304 0 1.0391-.2107 1.4142-.5858s.5858-.8838.5858-1.4142v-3m-29 0v3c0 .5304.21071 1.0391.58579 1.4142.37507.3751.88378.5858 1.41421.5858h3"/><path d="m12 8 10 7-10 7z"/></svg>

<svg width="31" height="31" viewBox="0 0 31 31" fill="none" xmlns="http://www.w3.org/2000/svg">
<path d="M6 1H3C2.46957 1 1.96086 1.21071 1.58579 1.58579C1.21071 1.96086 1 2.46957 1 3V6M30 6V3C30 2.46957 29.7893 1.96086 29.4142 1.58579C29.0391 1.21071 28.5304 1 28 1H25M25 30H28C28.5304 30 29.0391 29.7893 29.4142 29.4142C29.7893 29.0391 30 28.5304 30 28V25M1 25V28C1 28.5304 1.21071 29.0391 1.58579 29.4142C1.96086 29.7893 2.46957 30 3 30H6"/>
<path d="M12 8L22 15L12 22V8Z"/>
</svg>
